X:385
T:Sally Ann
C:Traditional
N:Transcribed by Dan Freeman
R:bluegrass
L:1/8
Q:1/4=220
M:4/4
K:D
z8 | z2 [e2A2] [e2B2] [e2c2] | "D"[f2d2] [fd]e dB AF | "G"G[BG] zB [B2G2] [BG]B | 
[B2G2] Bd BA FD | "D"F[AA] z[dA] [d2A2] AB | Fd ze dB AF | "G"GB zG [B2G2] BB | 
[B2G2] Bd BA FD | "D"F[AA] z[dA] [d2A2] [dA][dA] | [d2A2] [A2F2] [A2E2] [A2D2] | 
EF zA F2 DE | FD EF "A"ED B,A, | "D"B,=C DD [F2D2] FA | [d2A2] [A2F2] [A2E2] [A2D2] | 
EF zA F2 DE | FD EF "A"ED B,A, | "D"B,=C DD D2 AB | {=F}^Fd zF dF Ad | "G"B[=fB] z[fB] [f2B2] A^A | 
Bd dA BA FA | "D"F[AA] z[dA] [d2A2] AB | {=F}^Fd zF dF Ad | "G"B[=fB] z[fB] [f2B2] Bf | 
Bg aa a2 aa | {=f}"D"^fd4z F[AA] | [AA][AD] [AF][AD] [AE][AD] [DB,][AD] | E{=F}^F zA F2 DE | 
FD EF "A"ED B,A, | "D"B,=C DD [F2D2] FA | [AA][AD] [AF][AD] [AE][AD] [DB,][AD] | 
E{=F}^F zA F2 DE | FD EF "A"ED B,A, | "D"B,=C D[DD] DF Ac | dc de dB AF | "G"GB zG B2 GA | 
BA Bd BA FD | "D"F[AA] z[AA] DF Ac | dc de dB AF | "G"GB zG B2 GA | BA Bd BA FD | 
"D"F[AA] z[AA] [A2A2] F[AA] | [AA][AD] [AF][AD] [AE][AD] [DB,][AD] | E{=F}^F zA F2 DE | 
FD EF "A"ED B,A, | "D"B,=C DD [F2D2] FA | [AA][AD] [AF][AD] [AE][AD] [DB,][AD] | 
E{=F}^F zA F2 DE | FD EF "A"ED B,A, | "D"B,=C DD [F4D4] | {A}Bd dd dd dB | AF EF D2 DE | 
=FE FE DF ED | B,C DB, [D4A,4] | 


